X:1
T:Laride : Les chemins de l'Atlantique
Z:Ren Quiniou (http://www.irisa.fr/prive/quiniou)
R:Larid 8 temps
A:Bretagne
C:Jean Baron (Part A)
S:Jean Baron
M:4/4
L:1/8
P:A
K:G
GFGA BdBA|GFGA BdBA|GFGA Bd Bd||
dedc B2 A2|AGAc BABG|dedc B2 A2|AGAc BA Gd||
dcBe egdd|dcBe ec d2::
GABc BA d2|dBGA (3GFG AG|GBde dc B2|dBGB A2G2:|
P:B
C:Jean Lagadur (Carnac)
K:G
Gddc dedc|AB (3cBA cB G2::
d|dB G2 GA B2|BcAB Gddd|GA B2 GA B2|BcAB GddG|AB G2:|
P:C
C:Paulo (Carnac)
K:G
dd d2 cBAG|d2 d2 cB A2::
G2 AB cAdz|c2 BG ABAB|G2 AB cAdz|c2 BG AB G2:|
